account-badge.svg

<svg fill="currentColor" viewBox="0 0 24 24"><path d="M14 19.5c0-2 1.1-3.8 2.7-4.7-1.3-.5-2.9-.8-4.7-.8-4.4 0-8 1.8-8 4v2h10zm5.5-3.5c-1.9 0-3.5 1.6-3.5 3.5s1.6 3.5 3.5 3.5 3.5-1.6 3.5-3.5-1.6-3.5-3.5-3.5M16 8c0 2.2-1.8 4-4 4s-4-1.8-4-4 1.8-4 4-4 4 1.8 4 4"/></svg>

<svg  viewBox="0 0 24 24" fill="currentColor"><path  d="M14 19.5C14 17.5 15.1 15.7 16.7 14.8C15.4 14.3 13.8 14 12 14C7.6 14 4 15.8 4 18V20H14V19.5M19.5 16C17.6 16 16 17.6 16 19.5S17.6 23 19.5 23 23 21.4 23 19.5 21.4 16 19.5 16M16 8C16 10.2 14.2 12 12 12S8 10.2 8 8 9.8 4 12 4 16 5.8 16 8Z"/></svg>
